modules/feathericon/icons/gear.svg

<?xml version="1.0" encoding="UTF-8"?>
<svg width="14px" height="14px" viewBox="0 0 14 14" version="1.1" xmlns="http://www.w3.org/2000/svg" xmlns:xlink="http://www.w3.org/1999/xlink">
    <!-- Generator: sketchtool 48.1 (47250) - http://www.bohemiancoding.com/sketch -->
    <title>gear</title>
    <desc>Created with sketchtool.</desc>
    <defs></defs>
    <g id="web-app" stroke="none" stroke-width="1" fill="none" fill-rule="evenodd">
        <g id="gear" fill="#000000">
            <path d="M9.7573899,11.1716035 C9.2325844,11.5191928 8.63837466,11.7703987 8,11.8999819 L8,13.5 C8,14 7.50460182,14 7.50460182,14 L6.5012276,14 C6.5012276,14 6,14 6,13.5 L6,11.8999819 C5.36162534,11.7703987 4.7674156,11.5191928 4.2426101,11.1716035 L3.1109127,12.3033009 C2.75735931,12.6568542 2.4070599,12.3065548 2.4070599,12.3065548 L1.69756718,11.5970621 C1.69756718,11.5970621 1.34314575,11.2426407 1.69669914,10.8890873 L2.82839654,9.7573899 C2.48080724,9.2325844 2.22960133,8.63837466 2.10001812,8 L0.5,8 C0,8 0,7.5 0,7.5 L0,6.5 C0,6.5 0,6 0.5,6 L2.10001812,6 C2.22960133,5.36162534 2.48080724,4.7674156 2.82839654,4.2426101 L1.69669914,3.1109127 C1.34314575,2.75735931 1.69669914,2.40380592 1.69669914,2.40380592 L2.40380592,1.69669914 C2.40380592,1.69669914 2.75735931,1.34314575 3.1109127,1.69669914 L4.2426101,2.82839654 C4.7674156,2.48080724 5.36162534,2.22960133 6,2.10001812 L6,0.5 C6,0 6.5,0 6.5,0 L7.5,0 C7.5,0 8,0 8,0.5 L8,2.10001812 C8.63837466,2.22960133 9.2325844,2.48080724 9.7573899,2.82839654 L10.8890873,1.69669914 C11.2426407,1.34314575 11.5961941,1.69669914 11.5961941,1.69669914 L12.3033009,2.40380592 C12.3033009,2.40380592 12.6568542,2.75735931 12.3033009,3.1109127 L11.1716035,4.2426101 C11.5191928,4.7674156 11.7703987,5.36162534 11.8999819,6 L13.5,6 C14,6 14,6.48752241 14,6.48752241 L14,7.5 C14,7.5 14,8 13.5,8 L11.8999819,8 C11.7703987,8.63837466 11.5191928,9.2325844 11.1716035,9.7573899 L12.3033009,10.8890873 C12.6568542,11.2426407 12.3121238,11.5873711 12.3121238,11.5873711 L11.5961941,12.3033009 C11.5961941,12.3033009 11.2426407,12.6568542 10.8890873,12.3033009 L9.7573899,11.1716035 Z M7,10 C8.65685425,10 10,8.65685425 10,7 C10,5.34314575 8.65685425,4 7,4 C5.34314575,4 4,5.34314575 4,7 C4,8.65685425 5.34314575,10 7,10 Z" id="Shape"></path>
        </g>
    </g>
</svg>

<svg width="14" height="14" xmlns="http://www.w3.org/2000/svg"><path d="M9.757 11.172A4.972 4.972 0 0 1 8 11.9v1.6c0 .5-.495.5-.495.5H6.5S6 14 6 13.5v-1.6a4.972 4.972 0 0 1-1.757-.728L3.11 12.303c-.354.354-.704.004-.704.004l-.71-.71s-.354-.354 0-.708l1.131-1.132A4.972 4.972 0 0 1 2.1 8H.5C0 8 0 7.5 0 7.5v-1S0 6 .5 6h1.6c.13-.638.38-1.233.728-1.757L1.697 3.11c-.354-.354 0-.707 0-.707l.707-.707s.353-.354.707 0l1.132 1.131A4.972 4.972 0 0 1 6 2.1V.5c0-.5.5-.5.5-.5h1S8 0 8 .5v1.6c.638.13 1.233.38 1.757.728l1.132-1.131c.354-.354.707 0 .707 0l.707.707s.354.353 0 .707l-1.131 1.132c.347.524.598 1.119.728 1.757h1.6c.5 0 .5.488.5.488V7.5s0 .5-.5.5h-1.6a4.972 4.972 0 0 1-.728 1.757l1.131 1.132c.354.354.01.698.01.698l-.717.716s-.353.354-.707 0l-1.132-1.131zM7 10a3 3 0 1 0 0-6 3 3 0 0 0 0 6z" fill="#000" fill-rule="evenodd"/></svg>
